assets/svg/313-C.svg

<svg xmlns="http://www.w3.org/2000/svg" xmlns:xlink="http://www.w3.org/1999/xlink" width="25.88" height="25.88"><defs><path id="a" d="M0 0h25.88v25.88H0z"/></defs><clipPath id="b"><use xlink:href="#a" overflow="visible"/></clipPath><path fill="none" stroke="#00AEEF" stroke-width=".58" d="m5.78 22.65-3.1 2.02M0 21.1l1.16.5m8.24.84-2.16-2.36m1.06-2.65 2.83-1.4M9.2 13.7l2.05-2.6m-6.77 2.5 2.24 1.95M1.9 17 .4 14.02m10.3 6.16 3.42 1.4M4.54 17.4l-.66 3.2m1.92-11-3.13 1.94m-1.5-3.12L0 7.94m9.4 1.32L7.26 6.9m3.84-4.05-2.82 1.4M4.45.4 6.7 2.32M.42.86l1.5 2.98M10.67 7l3.43 1.4M4.54 4.2l-.66 3.17m14.82 15.3-3.08 2.02m6.74-2.23L20.2 20.1m1.05-2.67 2.82-1.4m-1.93-2.33 2.06-2.6m-6.8 2.48 2.24 1.95M13.34 14l1.5 3m2.64.38-.66 3.18m1.9-11.11-3.07 2.04m6.72-2.22L20.2 6.9m1.03-2.66 2.82-1.4M17.4.4l2.24 1.94M13.34.8l1.5 3m2.63.4-.66 3.2m6.82 12.78 2.25.92M23.63 7.02l2.25.9M9.2.52 9.6 0m12.94 0-.4.53M11.26 23.76l-1.68 2.12m14.62-2.11-1.68 2.1" clip-path="url(#b)"/></svg>

<?xml version="1.0"?>
<svg xmlns="http://www.w3.org/2000/svg" xmlns:xlink="http://www.w3.org/1999/xlink" width="25.876" height="25.877">
  <defs>
    <path id="a" d="M0 0h25.88v25.88H0z"/>
  </defs>
  <clipPath id="b">
    <use xlink:href="#a" overflow="visible"/>
  </clipPath>
  <path fill="none" stroke="#00AEEF" stroke-width=".58" d="M5.78 22.65l-3.1 2.02M0 21.1l1.16.5M9.4 22.44l-2.16-2.36M8.3 17.43l2.83-1.4M9.2 13.7l2.05-2.6M4.48 13.6l2.24 1.95M1.9 17L.4 14.02M10.7 20.18l3.42 1.4M4.54 17.4l-.66 3.2M5.8 9.6l-3.13 1.94M1.17 8.42L0 7.94M9.4 9.26L7.26 6.9M11.1 2.85l-2.82 1.4M4.45.4L6.7 2.32M.42.86l1.5 2.98M10.67 7l3.43 1.4M4.54 4.2l-.66 3.17M18.7 22.67l-3.08 2.02M22.36 22.46L20.2 20.1M21.25 17.43l2.82-1.4M22.14 13.7l2.06-2.6M17.4 13.58l2.24 1.95M13.34 14l1.5 3M17.48 17.38l-.66 3.18M18.72 9.45l-3.07 2.04M22.37 9.27L20.2 6.9M21.23 4.24l2.82-1.4M17.4.4l2.24 1.94M13.34.8l1.5 3M17.47 4.2l-.66 3.2M23.63 20.18l2.25.92M23.63 7.02l2.25.9M9.2.52L9.6 0M22.54 0l-.4.53M11.26 23.76l-1.68 2.12M24.2 23.77l-1.68 2.1" clip-path="url(#b)"/>
</svg>
